X: 11348
T: Earl Of Breadalbane
R: reel
M: 4/4
K: Eminor
B|:(3EEE (EF) B3(^c|dB)Ad FDAF|(3EEE (EF) B3 g|fdB^d e3(f:|
gf)e(f gf)e(g|fe)d(a fa)d(f|gf)e(f gf)eg|fdB^d e3|
(f|gf)e(f gf)e(g|fe)d(a fa)d(f|gf)eg bge(g|fd)B^d e3f||

